X:3
T:Marche de Pques - I175
C:C. Tassin
M:C
L:1/4
K:C
[P:Couplets]E/F/|"Do"GG G3//A//G/F/|"Lam"E2 CD/E/|"Rem"FF "Sol"F3//G//"Do"F/E/|"Sol"D3 E/F/|\
"Do"GG G3//A//"Rem"G/F/|
"Lam"E2 "Fa"CC/D/|"Do"EE "Sol"DD|"Do"C2 [P:Refrain]z"Fa"A/B/|"Lam"cc "Re"d3//c//"Sol"B/A/|\
"Mim"G2 "Lam"cC/D/|"Do"EE"Fa"D"Sol"D|"Do"C-C2||
